X:183
T:Grand Parade,The. RH.183
R:Quickstep
S:Rev.R.Harrison’s MS,c1815,Cumbria
O:England
A:Temple Sowerby,Cumbria
Z:vmp.Simon Wilson. Review PJH, 2008.
M:6/8
L:1/8
Q:3/8=110
K:D
d2f agf|e2f gfe|fed edc|dAG FED|\
d2f agf|e2f gfe|fed edc|d3 D3:|!
|:f2d cBA|AdG FED|DED EGE|FAG FED|\
GBG AcA|ced cBA|dfd edc|d3 D3:|

